assets/images/icons/src/hand-lizard-o.svg

<?xml version="1.0" encoding="utf-8"?>
<!-- Generated by IcoMoon.io -->
<!DOCTYPE svg PUBLIC "-//W3C//DTD SVG 1.1//EN" "http://www.w3.org/Graphics/SVG/1.1/DTD/svg11.dtd">
<svg version="1.1" xmlns="http://www.w3.org/2000/svg" xmlns:xlink="http://www.w3.org/1999/xlink" width="16" height="14" viewBox="0 0 16 14">
<path fill="#444444" d="M8.992 0q0.477 0 0.906 0.219t0.711 0.602l4.469 6.102q0.922 1.242 0.922 2.805v2.773q0 0.625-0.438 1.062t-1.062 0.438h-3q-0.625 0-1.062-0.438t-0.438-1.062v-1.383l-2.234-1.117h-4.266q-0.625 0-1.062-0.438t-0.438-1.062v-0.25q0-0.93 0.66-1.59t1.59-0.66h3.281l0.328-1h-5.359q-0.781 0-1.355-0.527t-0.637-1.301q-0.508-0.617-0.508-1.422v-0.25q0-0.625 0.438-1.062t1.062-0.438h7.492zM15 12.5v-2.773q0-1.227-0.727-2.219l-4.477-6.102q-0.305-0.406-0.805-0.406h-7.492q-0.203 0-0.352 0.148t-0.148 0.352q0 0.25 0.012 0.387t0.074 0.316 0.195 0.336q0.078-0.242 0.277-0.391t0.441-0.148h6.5v0.25h-6.5q-0.203 0-0.352 0.148t-0.148 0.352q0 0.344 0.023 0.453 0.062 0.344 0.344 0.57t0.633 0.227h5.711q0.312 0 0.531 0.219t0.219 0.531q0 0.117-0.039 0.234l-0.5 1.5q-0.078 0.227-0.273 0.371t-0.437 0.145h-3.461q-0.516 0-0.883 0.367t-0.367 0.883v0.25q0 0.203 0.148 0.352t0.352 0.148h4.383q0.125 0 0.227 0.055l2.477 1.234q0.187 0.102 0.301 0.281t0.113 0.391v1.539q0 0.203 0.148 0.352t0.352 0.148h3q0.203 0 0.352-0.148t0.148-0.352z"></path>
</svg>

<svg xmlns="http://www.w3.org/2000/svg" width="16" height="14" viewBox="0 0 16 14"><path fill="#444" d="M8.992 0q.477 0 .906.219t.711.602l4.469 6.102Q16 8.165 16 9.728v2.773q0 .625-.438 1.062t-1.062.438h-3q-.625 0-1.062-.438T10 12.501v-1.383l-2.234-1.117H3.5q-.625 0-1.062-.438T2 8.501v-.25q0-.93.66-1.59t1.59-.66h3.281l.328-1H2.5q-.781 0-1.355-.527T.508 3.173Q0 2.556 0 1.751v-.25Q0 .876.438.439T1.5.001h7.492zM15 12.5V9.727q0-1.227-.727-2.219L9.796 1.406Q9.491 1 8.991 1H1.499q-.203 0-.352.148T.999 1.5q0 .25.012.387t.074.316.195.336q.078-.242.277-.391T1.998 2h6.5v.25h-6.5q-.203 0-.352.148t-.148.352q0 .344.023.453.062.344.344.57T2.498 4h5.711q.312 0 .531.219t.219.531q0 .117-.039.234l-.5 1.5q-.078.227-.273.371T7.71 7H4.249q-.516 0-.883.367t-.367.883v.25q0 .203.148.352T3.499 9h4.383q.125 0 .227.055l2.477 1.234q.187.102.301.281t.113.391V12.5q0 .203.148.352T11.5 13h3q.203 0 .352-.148T15 12.5z"/></svg>
